X: 150
T: Açıldı Bahçede Güller
C: Rifat Bey (Sermüezzin, Miralay)
O: Turkey
F: http://compmusic.upf.edu/node/140
N: nihavent--sarki--yuruksemai_ii--acildi_bahcede--rifat_bey
N: makam= nihavent
N: form= sarki
N: usul= yuruksemai_ii = 6/8
M: 6/8
L: 1/16
K: C _B _e  
Q: 1/4=144
%%MIDI tuningsystem comma53
B3B B2B2 A2G2  | c3c c2c2 B2A2  | f6=e2 f2g2  | \
w:  ARANAĞME  |   |   | 
f6f2 g2a2  | b2a2 g2f2 e2d2  | 
w:   |   | 
c2d2 c2B2 A2G2  | c2B2 A2G2 ^F2A2  | \
w:   |   | 
G8-G2z2  | B3B B2B2 A2G2  | 
w:   |  ARANAĞME  | 
c3c c2c2 B2A2  | f6=e2 f2g2  | f6f2 g2a2  | \
w:   |   |   | 
b2a2 g2f2 e2d2  | c2d2 c2B2 A2G2  | 
w:   |   | 
c2B2 A2G2 ^F2A2  | G8-G2z2  | G6G4A2  | \
w:   |   |  A çıl dı   | 
G2A2 B2c2 d4  | d4 ^f2e2 d2^c2  | 
w:  bah  |  çe de  gül  | 
d4 c2B2 A2G2  | G6G4A2  | G2A2 B2c2 d4  | \
w:  ler    |  A çıl dı   |  bah  | 
d4 c2B4c2  | d8-d2z2  | d6c4d2  | 
w:  çe de  gül  |  ler    |  E der  â  | 
e2d2 c2B2 A2G2  | B2A2 G2A2 G2^F2  | \
w:  gâ  |  ze  bül *  bül  | 
G3A B2c2 d4  | d6c4d2  | e2d2 c2B2 A2G2  | 
w:  ler    |  E der  â  |  gâ  | 
B2A2 G2A2 G2^F2  | G6^f2 g4  | g2g4g6  | \
w:  ze  bül *  bül  |  ler   SAZ  |  Be ni  mec  | 
d2e2 ^f2g2 a4  | g2^f2 e2d2 c2ag  | 
w:  nûn   |  e den  *  dil  | 
g6^f2 e2d2  | g2g4g6  | d2e2 ^f2g2 a4  | \
w:  ler   SAZ  |  Be ni  mec  |  nûn   | 
g2^f2 e2d2 c2ag  | g8-g2z2  | 
w:  e den  *  dil  |  ler    | 
a2g2 a2g2 ^f2g2  | ^f2e2 f2e4d2  | a2g3^ff2 e2ed  | \
w:  Yâr   |   |  a man  *  e *  fen  | 
d6g2 a4  | 
w:  dim   SAZ  | 
a2g2 a2g2 ^f2g2  | ^f2e2 f2e4d2  | a2g3^ff2 e2ed  | \
w:  Yâr   |   |  a man  *  e *  fen  | 
d8-d2z2  | 
w:  dim    | 
e2d2 c2B4c2  | d6d2 c2B2  | c2B2 A2G2 ^F2G2  | \
w:  Gö nül  *  düş  |  tü   |  sa na  *  câ  | 
A8-A2z2  | d6c4d2  | 
w:  nâ    |  Ref tâ rı   | 
e2d2 c2B2 A2G2  | B2A2 G2A2 G2^F2  | \
w:  â  |  lâ *  dan_ â  | 
G3A B2c2 d4  | e2d2 c2B4c2  | 
w:  lâ    |  Gö nül  *  düş  | 
d6d2 c2B2  | c2B2 A2G2 ^F2G2  | A8-A2z2  | \
w:  tü   |  sa na  *  câ  |  nâ    | 
d6c4d2  | e2d2 c2B2 A2G2  | 
w:  Ref tâ rı   |  â  | 
B2A2 G2A2 G2^F2  | G8-G2z2  | |


